X: 58
T: No_150_Opening_Song_of_the_Bat_Dance.krn
N: Derived from No_150_Opening_Song_of_the_Bat_Dance.krn
%%abc-version 2.0
%%abcx-abcm2ps-target-version 5.9.1 (29 Sep 2008)
%%abc-creator hum2abc beta
%%abcx-conversion-date 2019/03/15 08:37:56
%%humdrum-veritas 4062612739
%%humdrum-veritas-data 1039195744
%%linebreak <none>
%%barnumbers 0
L: 1/8
M: 2/4
K: Eb clef=bass
[K:clef=bass][M:2/4]C4 | 
C2C2 | 
B,2G,3/G,/ ||  
[M:3/4]G,4z2 ||  
[M:2/4]B,4 | 
B,2B,2 | 
G,2F,3/F,/ ||  
[M:3/4]E,4C, z ||  
[M:2/4]E,2C,3/E,/ | 
(3E,E,E, E,E, ||  
[M:3/4]E,4z2 ||  
[M:2/4]G,2B,B, | 
B,2B,3/B,/ | 
G,2G,3/G,/ | 
G,2F,3/G,/ | 
F,2E,2 | 
C,4 | 
z2C,2 | 
B,2(B,3/G,/) | 
G,3/F,/ (G,3/F,/) ||  
[M:3/4]E,3/E,/E,2C,3/C,/ ||  
[M:2/4]E,4 | 
z4 | 
E,2E,2 | 
E,E, E,E, | 
E,4 |]  



